X: 1
T: Long Note
R:Slide
N:Also a reel
S:Whistle Book
Z:Alf Warnock - alf0@rogers.com - http:/members.rogers.com/alf0 (corrected by John Chambers)
M:12/8
L:1/8
K:Dmix
|: ~D3 D2A A2G E2F | G2E ~E3 c2E d3  | ~D3 D2A A2G E2G | ~A3 G2A E2A D3 :|
[| ~e3 d2B c2A d2B | c2A d2B c2A G3  | ddd d2B c2A d2d | e2a a2g e3  d3  |
|  ~e3 d2B c2A d2B | c2A d2B c2A G2F | D2E F2G A2d d2c | ~A3 G2A E2A D3 |][K:D]
|: ~a3 a2b a2f d2f | g2f g2a g2e c3  | ~a3 a2b a2f d2d | e2a a2g eae d3  |
|  eaa a2b a2f d2f | g2e fed e2d c2B | A2B c2d e2d d2c | ~A3 G2A E2A D3 :|
%%sep 1 1 500
